X: 26980
T: Miss Dunbarr
R: reel
M: 4/4
K: Gmajor
G3e dGBG|dGBG AGEF|~G3e dGBd|gabg eg~g2:|
dega bagd|eBdB AGEA|dega bagd|(3gab ag eg~g2|
dega bagd|eBdB AGEA|dega ~b3g|~a3g efg2|

